src/img/logo.svg

<svg width="217" height="78" viewBox="0 0 217 78" fill="none" xmlns="http://www.w3.org/2000/svg">
<path d="M22.0115 0H0.37707L0 4.07611H0.0471338C3.39363 2.48315 5.56179 0.749629 8.05988 0.749629H9.04969V30.1726H13.3389V0.749629H14.2815C16.7796 0.749629 19.0421 2.53 22.3886 4.12297H22.4828L22.0115 0Z" fill="#C1AB81"/>
<path d="M48.6226 0V14.1024H33.7754V0H29.5334V30.1726H33.7754V14.8521H48.6226V30.1726H52.8646V0H48.6226Z" fill="#C1AB81"/>
<path d="M68.9704 29.423H66.5666V14.8521H74.485V14.1024H66.5666V0.749629H68.9704C72.5526 0.749629 76.7946 1.03074 78.3971 5.29426H79.2927L79.2456 0H62.3245V30.1726H79.2456L79.2927 24.8784H78.3971C76.7946 29.1419 72.5526 29.423 68.9704 29.423Z" fill="#C1AB81"/>
<path d="M139.638 0C138.365 3.93556 137.328 6.93408 135.16 12.978L131.483 23.5665L123.376 0H123.188L114.892 23.5665L106.785 0H102.26L113.007 30.8286H113.148L121.491 7.21519L129.692 30.8286H129.834L135.961 13.2591C137.799 8.10538 139.119 4.31038 140.91 0H139.638Z" fill="#C1AB81"/>
<path d="M152.236 30.1726V0H147.994V30.1726H152.236Z" fill="#C1AB81"/>
<path d="M177.802 24.8784C176.199 29.1419 171.957 29.423 168.375 29.423H165.971V0H161.729V30.1726H178.65L178.697 24.8784H177.802Z" fill="#C1AB81"/>
<path d="M196.564 0H185.959V30.1726H195.857C206.179 30.1726 212.636 24.5036 212.636 14.7584C212.636 5.20056 206.179 0 196.564 0ZM196.564 29.5167C193.217 29.5167 191.285 29.3762 190.201 29.1419V0.702778H196.187C203.351 0.702778 207.97 6.41871 207.97 14.9926C207.97 24.2693 203.822 29.5167 196.564 29.5167Z" fill="#C1AB81"/>
<path d="M7.19361 77.0245V46.8519H2.95157V77.0245H7.19361ZM25.7643 46.9456V46.8519H24.1618C21.8522 49.054 18.9771 51.7245 14.4994 55.9412L8.51336 61.5634L18.9299 77.0245H24.5389L12.0013 59.4082L15.0178 56.5503C18.8828 52.8958 22.2293 49.8036 25.7643 46.9456Z" fill="#C1AB81"/>
<path d="M36.9929 77.0245V46.8519H32.7508V77.0245H36.9929Z" fill="#C1AB81"/>
<path d="M66.7534 46.8519C66.7534 46.8519 66.7534 47.3204 66.7534 60.0642V70.231L50.1152 46.8519H45.0719V46.9925L47.0986 49.8036V76.9777H47.9471V50.9749L67.2248 77.5399H67.6019V46.8519H66.7534Z" fill="#C1AB81"/>
<path d="M92.5275 63.3438L92.9989 64.0934H99.9747V74.3071C98.1365 75.7595 95.3084 76.7903 92.2447 76.7903C85.1747 76.7903 80.5084 70.6527 80.5084 61.8914C80.5084 52.8958 84.7505 47.0393 91.3963 47.0393C93.5645 47.0393 94.8371 48.3512 95.7798 50.0847C97.288 52.8021 100.917 53.4112 103.133 51.256L103.227 51.2091C100.729 48.4449 96.6753 46.3834 91.7734 46.3834C82.6766 46.3834 75.8422 52.5678 75.8422 62.1725C75.8422 71.8708 82.2995 77.5399 92.0562 77.5399C97.4295 77.5399 101.2 75.7127 103.887 73.7449V63.3438H92.5275Z" fill="#C1AB81"/>
<path d="M122.949 46.8519H112.344V77.0245H122.242C132.565 77.0245 139.022 71.3555 139.022 61.6103C139.022 52.0525 132.565 46.8519 122.949 46.8519ZM122.949 76.3686C119.603 76.3686 117.67 76.2281 116.586 75.9938V47.5547H122.572C129.737 47.5547 134.356 53.2706 134.356 61.8445C134.356 71.1212 130.208 76.3686 122.949 76.3686Z" fill="#C1AB81"/>
<path d="M162.053 46.3834C153.003 46.3834 146.027 52.5678 146.027 62.2662C146.027 71.7771 152.862 77.5399 161.534 77.5399C170.537 77.5399 177.56 71.3555 177.56 61.6571C177.56 52.1462 170.725 46.3834 162.053 46.3834ZM161.959 76.884C155.313 76.884 150.694 70.8401 150.694 61.7977C150.694 52.8958 155.03 47.0393 161.723 47.0393C168.275 47.0393 172.894 53.0832 172.894 62.1256C172.894 71.0275 168.557 76.884 161.959 76.884Z" fill="#C1AB81"/>
<path d="M213.702 46.8519H209.884L201.07 69.0597L191.031 46.8519H186.459V46.9925L187.354 48.9602L184.715 76.9777H185.516L188.014 50.5064L199.326 75.1505H199.515L209.696 49.4756L212.288 77.0245H216.577L213.702 46.8519Z" fill="#C1AB81"/>
</svg>

<svg width="217" height="78" fill="none" xmlns="http://www.w3.org/2000/svg"><path d="M22.012 0H.377L0 4.076h.047C3.394 2.483 5.562.75 8.06.75h.99v29.423h4.289V.75h.942c2.499 0 4.761 1.78 8.108 3.373h.094L22.012 0ZM48.623 0v14.102H33.775V0h-4.242v30.173h4.242v-15.32h14.848v15.32h4.242V0h-4.242ZM68.97 29.423h-2.403v-14.57h7.918v-.75h-7.918V.75h2.403c3.583 0 7.825.28 9.427 4.544h.896L79.246 0H62.325v30.173h16.92l.048-5.295h-.896c-1.602 4.264-5.844 4.545-9.427 4.545ZM139.638 0c-1.273 3.936-2.31 6.934-4.478 12.978l-3.677 10.589L123.376 0h-.188l-8.296 23.567L106.785 0h-4.525l10.747 30.829h.141l8.343-23.614 8.201 23.614h.142l6.127-17.57C137.799 8.105 139.119 4.31 140.91 0h-1.272ZM152.236 30.173V0h-4.242v30.173h4.242ZM177.802 24.878c-1.603 4.264-5.845 4.545-9.427 4.545h-2.404V0h-4.242v30.173h16.921l.047-5.295h-.895ZM196.564 0h-10.605v30.173h9.898c10.322 0 16.779-5.67 16.779-15.415C212.636 5.201 206.179 0 196.564 0Zm0 29.517c-3.347 0-5.279-.14-6.363-.375V.702h5.986c7.164 0 11.783 5.717 11.783 14.29 0 9.277-4.148 14.525-11.406 14.525ZM7.194 77.025V46.852H2.952v30.173h4.242Zm18.57-30.08v-.093h-1.602c-2.31 2.202-5.185 4.873-9.663 9.09l-5.986 5.621L18.93 77.025h5.609L12 59.407l3.017-2.858c3.865-3.654 7.211-6.746 10.746-9.604ZM36.993 77.025V46.852H32.75v30.173h4.242ZM66.753 46.852V70.23l-16.638-23.38h-5.043v.142l2.027 2.81v27.175h.848V50.975L67.225 77.54h.377V46.852h-.849ZM92.528 63.344l.47.75h6.977v10.213c-1.838 1.453-4.667 2.483-7.73 2.483-7.07 0-11.737-6.137-11.737-14.899 0-8.995 4.243-14.852 10.888-14.852 2.168 0 3.441 1.312 4.384 3.046 1.508 2.717 5.137 3.326 7.353 1.171l.094-.047c-2.498-2.764-6.552-4.826-11.454-4.826-9.096 0-15.93 6.185-15.93 15.79 0 9.698 6.456 15.367 16.213 15.367 5.374 0 9.144-1.827 11.831-3.795V63.344h-11.36ZM122.949 46.852h-10.605v30.173h9.898c10.323 0 16.78-5.67 16.78-15.415 0-9.557-6.457-14.758-16.073-14.758Zm0 29.517c-3.346 0-5.279-.14-6.363-.375v-28.44h5.986c7.165 0 11.784 5.717 11.784 14.29 0 9.277-4.148 14.525-11.407 14.525ZM162.053 46.383c-9.05 0-16.026 6.185-16.026 15.883 0 9.511 6.835 15.274 15.507 15.274 9.003 0 16.026-6.184 16.026-15.883 0-9.51-6.835-15.274-15.507-15.274Zm-.094 30.501c-6.646 0-11.265-6.044-11.265-15.086 0-8.902 4.336-14.759 11.029-14.759 6.552 0 11.171 6.044 11.171 15.087 0 8.902-4.337 14.758-10.935 14.758ZM213.702 46.852h-3.818L201.07 69.06l-10.039-22.208h-4.572v.14l.895 1.968-2.639 28.018h.801l2.498-26.472 11.312 24.644h.189l10.181-25.674 2.592 27.549h4.289l-2.875-30.173Z" fill="#C1AB81"/></svg>
